src/assets/tea-icon.svg

<svg width="26" height="26" viewBox="0 0 26 26" fill="none" xmlns="http://www.w3.org/2000/svg">
<path d="M15.6406 13.4063C15.5399 13.4062 15.4429 13.3687 15.3683 13.3012C15.2937 13.2336 15.2468 13.1408 15.2367 13.0406L15.1067 11.7406C15.0967 11.6404 15.0497 11.5475 14.975 11.48C14.9004 11.4124 14.8032 11.375 14.7025 11.375H6.42274C6.32203 11.375 6.22491 11.4124 6.15022 11.48C6.07553 11.5475 6.02859 11.6404 6.01852 11.7406L5.89055 13.0406C5.87978 13.1478 5.82686 13.2464 5.74343 13.3146C5.66001 13.3827 5.55292 13.415 5.44571 13.4042C5.3385 13.3935 5.23997 13.3405 5.17178 13.2571C5.1036 13.1737 5.07134 13.0666 5.08212 12.9594L5.21212 11.6594C5.24132 11.3587 5.38154 11.0797 5.6054 10.8769C5.82925 10.6741 6.12067 10.562 6.42274 10.5625H14.7021C15.0045 10.5615 15.2965 10.6734 15.5207 10.8762C15.745 11.0791 15.8855 11.3584 15.9148 11.6594L16.0448 12.9594C16.0504 13.0126 16.0454 13.0665 16.0302 13.1178C16.0149 13.1691 15.9897 13.2169 15.9559 13.2584C15.9221 13.2999 15.8804 13.3344 15.8333 13.3598C15.7861 13.3851 15.7345 13.4009 15.6812 13.4063C15.667 13.4063 15.6536 13.4063 15.6406 13.4063Z" fill="#EFEFEF"/>
<path d="M11.375 9.75C11.2673 9.75 11.1639 9.7072 11.0877 9.63101C11.0116 9.55483 10.9688 9.45149 10.9688 9.34375V8.53125C10.9688 8.20802 11.0972 7.89802 11.3257 7.66946C11.5543 7.4409 11.8643 7.3125 12.1875 7.3125H16.6563C16.764 7.3125 16.8673 7.2697 16.9435 7.19351C17.0197 7.11733 17.0625 7.01399 17.0625 6.90625C17.0625 6.79851 17.0197 6.69517 16.9435 6.61899C16.8673 6.5428 16.764 6.5 16.6563 6.5H15.8438C15.5205 6.5 15.2105 6.3716 14.982 6.14304C14.7534 5.91448 14.625 5.60448 14.625 5.28125C14.625 4.95802 14.7534 4.64802 14.982 4.41946C15.2105 4.1909 15.5205 4.0625 15.8438 4.0625H20.9219C21.0296 4.0625 21.133 4.0197 21.2091 3.94351C21.2853 3.86733 21.3281 3.76399 21.3281 3.65625C21.3281 3.54851 21.2853 3.44517 21.2091 3.36899C21.133 3.2928 21.0296 3.25 20.9219 3.25H10.3594C10.2516 3.25 10.1483 3.2928 10.0721 3.36899C9.99593 3.44517 9.95312 3.54851 9.95312 3.65625C9.95312 3.76399 9.99593 3.86733 10.0721 3.94351C10.1483 4.0197 10.2516 4.0625 10.3594 4.0625H12.5938C12.917 4.0625 13.227 4.1909 13.4555 4.41946C13.6841 4.64802 13.8125 4.95802 13.8125 5.28125C13.8125 5.60448 13.6841 5.91448 13.4555 6.14304C13.227 6.3716 12.917 6.5 12.5938 6.5H12.1875C11.649 6.50065 11.1327 6.71486 10.7519 7.09565C10.3711 7.47645 10.1569 7.99273 10.1563 8.53125V9.34375C10.1563 9.45149 10.1135 9.55483 10.0373 9.63101C9.96108 9.7072 9.85775 9.75 9.75 9.75C9.64226 9.75 9.53893 9.7072 9.46274 9.63101C9.38655 9.55483 9.34375 9.45149 9.34375 9.34375V8.53125C9.34472 7.77734 9.64464 7.05458 10.1777 6.52148C10.7108 5.98839 11.4336 5.68847 12.1875 5.6875H12.5938C12.7015 5.6875 12.8048 5.6447 12.881 5.56851C12.9572 5.49233 13 5.38899 13 5.28125C13 5.17351 12.9572 5.07017 12.881 4.99399C12.8048 4.9178 12.7015 4.875 12.5938 4.875H10.3594C10.0361 4.875 9.72615 4.7466 9.49759 4.51804C9.26903 4.28948 9.14062 3.97948 9.14062 3.65625C9.14062 3.33302 9.26903 3.02302 9.49759 2.79446C9.72615 2.5659 10.0361 2.4375 10.3594 2.4375H20.9219C21.2451 2.4375 21.5551 2.5659 21.7837 2.79446C22.0122 3.02302 22.1406 3.33302 22.1406 3.65625C22.1406 3.97948 22.0122 4.28948 21.7837 4.51804C21.5551 4.7466 21.2451 4.875 20.9219 4.875H15.8438C15.736 4.875 15.6327 4.9178 15.5565 4.99399C15.4803 5.07017 15.4375 5.17351 15.4375 5.28125C15.4375 5.38899 15.4803 5.49233 15.5565 5.56851C15.6327 5.6447 15.736 5.6875 15.8438 5.6875H16.6563C16.9795 5.6875 17.2895 5.8159 17.518 6.04446C17.7466 6.27302 17.875 6.58302 17.875 6.90625C17.875 7.22948 17.7466 7.53948 17.518 7.76804C17.2895 7.9966 16.9795 8.125 16.6563 8.125H12.1875C12.0798 8.125 11.9764 8.1678 11.9002 8.24399C11.8241 8.32017 11.7813 8.42351 11.7813 8.53125V9.34375C11.7813 9.45149 11.7385 9.55483 11.6623 9.63101C11.5861 9.7072 11.4827 9.75 11.375 9.75Z" fill="#EFEFEF"/>
<path d="M16.5249 17.7556L16.2096 14.5844C16.1995 14.4838 16.1523 14.3906 16.0772 14.323C16.002 14.2554 15.9044 14.2182 15.8034 14.2188H5.32211C5.22105 14.2182 5.12342 14.2554 5.0483 14.323C4.97319 14.3906 4.92596 14.4838 4.91586 14.5844L4.59898 17.7556C4.52552 18.4899 4.60679 19.2315 4.83756 19.9326C5.06832 20.6336 5.44346 21.2785 5.93877 21.8256C6.43408 22.3728 7.03857 22.81 7.71325 23.1092C8.38793 23.4083 9.11782 23.5628 9.85586 23.5625H11.2696C12.0075 23.5625 12.7372 23.4079 13.4117 23.1087C14.0862 22.8094 14.6905 22.3721 15.1856 21.825C15.6808 21.2779 16.0557 20.6331 16.2864 19.9322C16.5171 19.2313 16.5983 18.4898 16.5249 17.7556Z" fill="#F2C247"/>
<path d="M17.2793 15.9924C17.7583 16.0419 18.1879 16.2517 18.4921 16.5645C18.7945 16.8755 18.9524 17.2653 18.9562 17.6574C18.9599 18.0495 18.8096 18.4412 18.5139 18.7564C18.2165 19.0734 17.7918 19.2901 17.314 19.3475" stroke="#EFEFEF" stroke-width="1.9" stroke-linecap="round" stroke-linejoin="round"/>
</svg>

<svg xmlns="http://www.w3.org/2000/svg" width="26" height="26" fill="none" viewBox="0 0 26 26">
    <path fill="#EFEFEF" d="M15.64 13.406a.406.406 0 0 1-.403-.365l-.13-1.3a.406.406 0 0 0-.404-.366h-8.28a.406.406 0 0 0-.404.366l-.128 1.3a.406.406 0 0 1-.809-.082l.13-1.3a1.214 1.214 0 0 1 1.21-1.097h8.28a1.214 1.214 0 0 1 1.213 1.097l.13 1.3a.408.408 0 0 1-.364.447h-.04ZM11.375 9.75a.406.406 0 0 1-.406-.406V8.53a1.219 1.219 0 0 1 1.219-1.219h4.468a.406.406 0 0 0 0-.812h-.812a1.219 1.219 0 1 1 0-2.438h5.078a.406.406 0 1 0 0-.812H10.359a.406.406 0 1 0 0 .813h2.235a1.218 1.218 0 1 1 0 2.437h-.406a2.034 2.034 0 0 0-2.032 2.031v.813a.406.406 0 1 1-.812 0V8.53a2.848 2.848 0 0 1 2.844-2.844h.406a.406.406 0 0 0 0-.812h-2.235a1.219 1.219 0 1 1 0-2.438h10.563a1.219 1.219 0 0 1 0 2.438h-5.078a.406.406 0 1 0 0 .813h.812a1.218 1.218 0 1 1 0 2.437h-4.468a.406.406 0 0 0-.407.406v.813a.406.406 0 0 1-.406.406Z"/>
    <path fill="#F2C247" d="m16.525 17.756-.315-3.172a.406.406 0 0 0-.407-.365H5.323a.406.406 0 0 0-.407.365l-.317 3.172a5.281 5.281 0 0 0 5.257 5.806h1.414a5.283 5.283 0 0 0 5.255-5.806Z"/>
    <path stroke="#EFEFEF" stroke-linecap="round" stroke-linejoin="round" stroke-width="1.9" d="M17.28 15.992c.478.05.908.26 1.212.572.302.311.46.701.464 1.093.004.392-.146.784-.442 1.1a1.965 1.965 0 0 1-1.2.59"/>
</svg>
